public/images/sort.svg

<svg xmlns="http://www.w3.org/2000/svg" width="76" height="28" viewBox="0 0 76 28"><path fill="#242D32" d="M16 23c-.148 0-.29-.064-.386-.177l-5.492-6.415c-.128-.15-.157-.36-.074-.54.082-.18.263-.294.46-.294h10.985c.197 0 .377.114.46.293.083.18.054.39-.074.54l-5.494 6.416c-.095.113-.237.177-.386.177zm-4.392-6.415L16 21.715l4.392-5.13h-8.784zM21.878 11.592l-5.49-6.415C16.29 5.064 16.147 5 16 5c-.148 0-.29.064-.386.177l-5.492 6.415c-.13.15-.158.36-.075.54.082.18.263.294.46.294h10.984c.198 0 .378-.114.46-.293.084-.18.055-.39-.072-.54zM43.49 12.418H32.51c-.2 0-.38-.114-.463-.293-.083-.18-.053-.39.075-.54l5.492-6.416c.193-.226.58-.226.77 0l5.493 6.414c.128.15.158.36.075.54-.083.18-.263.294-.46.294zm-9.88-1.01h8.782L38 6.277l-4.39 5.13zM43.954 15.858c-.084-.18-.264-.293-.462-.293h-10.98c-.2 0-.38.114-.463.293-.084.18-.054.39.073.54l5.49 6.416c.098.113.238.177.387.177s.29-.063.386-.176L43.88 16.4c.127-.15.157-.362.074-.542z"/><g><path fill="#242D32" d="M65.49 12.418H54.51c-.2 0-.38-.114-.462-.293-.082-.18-.054-.39.075-.54l5.494-6.416c.19-.226.578-.226.77 0l5.492 6.414c.13.15.16.36.076.54-.083.18-.262.294-.46.294zm-9.883-1.01h8.783l-4.392-5.13-4.39 5.13zM60 22.992c-.15 0-.29-.064-.387-.177L54.12 16.4c-.127-.15-.155-.36-.073-.54.083-.18.263-.294.462-.294H65.49c.2 0 .378.114.46.293.084.18.056.39-.075.54l-5.492 6.415c-.096.112-.238.177-.386.177zm-4.392-6.415l4.39 5.13 4.394-5.13h-8.784z"/></g></svg>

<?xml version="1.0" encoding="utf-8"?>
<!-- Generator: Adobe Illustrator 16.0.4, SVG Export Plug-In . SVG Version: 6.00 Build 0)  -->
<!DOCTYPE svg PUBLIC "-//W3C//DTD SVG 1.1//EN" "http://www.w3.org/Graphics/SVG/1.1/DTD/svg11.dtd">
<svg version="1.1" id="Layer_1" xmlns="http://www.w3.org/2000/svg" xmlns:xlink="http://www.w3.org/1999/xlink" x="0px" y="0px"
	 width="76px" height="28px" viewBox="0 0 76 28" enable-background="new 0 0 76 28" xml:space="preserve">
<g>
	<g>
		<path fill="#242D32" d="M16,23c-0.148,0-0.289-0.064-0.386-0.177l-5.492-6.415c-0.128-0.15-0.157-0.361-0.074-0.541
			c0.082-0.179,0.263-0.293,0.461-0.293h10.984c0.197,0,0.377,0.114,0.46,0.293c0.083,0.18,0.054,0.391-0.074,0.541l-5.493,6.415
			C16.291,22.936,16.149,23,16,23z M11.608,16.585L16,21.714l4.392-5.129H11.608z"/>
	</g>
	<path fill="#242D32" d="M21.878,11.592l-5.491-6.415C16.291,5.064,16.149,5,16,5c-0.148,0-0.289,0.064-0.386,0.177l-5.492,6.415
		c-0.129,0.15-0.158,0.361-0.075,0.541c0.082,0.179,0.263,0.293,0.461,0.293h10.983c0.197,0,0.377-0.114,0.46-0.293
		C22.034,11.954,22.005,11.743,21.878,11.592z"/>
</g>
<g>
	<g>
		<path fill="#242D32" d="M43.491,12.418H32.509c-0.198,0-0.378-0.114-0.462-0.293c-0.083-0.18-0.053-0.391,0.075-0.541l5.492-6.415
			c0.193-0.225,0.579-0.225,0.771,0l5.492,6.415c0.128,0.15,0.158,0.361,0.075,0.541C43.869,12.304,43.689,12.418,43.491,12.418z
			 M33.609,11.407h8.783L38,6.277L33.609,11.407z"/>
	</g>
	<path fill="#242D32" d="M43.954,15.858c-0.084-0.179-0.264-0.293-0.462-0.293H32.511c-0.198,0-0.378,0.114-0.462,0.293
		c-0.083,0.18-0.053,0.391,0.074,0.541l5.49,6.415c0.098,0.113,0.238,0.177,0.387,0.177s0.289-0.064,0.386-0.177l5.493-6.415
		C44.007,16.249,44.037,16.038,43.954,15.858z"/>
</g>
<g>
	<g>
		<path fill="#242D32" d="M65.491,12.418H54.508c-0.199,0-0.379-0.114-0.462-0.293c-0.082-0.18-0.054-0.391,0.075-0.541l5.493-6.415
			c0.191-0.225,0.578-0.225,0.771,0l5.491,6.415c0.131,0.15,0.159,0.361,0.076,0.541C65.869,12.304,65.69,12.418,65.491,12.418z
			 M55.607,11.407h8.783l-4.392-5.129L55.607,11.407z"/>
	</g>
	<g>
		<path fill="#242D32" d="M59.999,22.992L59.999,22.992c-0.148,0-0.289-0.064-0.386-0.177l-5.492-6.415
			c-0.128-0.15-0.156-0.361-0.074-0.541c0.083-0.179,0.263-0.293,0.462-0.293h10.983c0.199,0,0.378,0.114,0.461,0.293
			c0.083,0.18,0.055,0.391-0.076,0.541l-5.492,6.415C60.289,22.927,60.147,22.992,59.999,22.992z M55.608,16.577l4.391,5.129
			l4.393-5.129H55.608z"/>
	</g>
</g>
</svg>
